assets/svg/smiley-face.svg

<svg width="83" height="70" viewBox="0 0 83 70" fill="none" xmlns="http://www.w3.org/2000/svg">
<path d="M17.4951 40.713C17.1935 40.4114 16.7769 40.2379 16.349 40.2379C15.9227 40.2379 15.5043 40.4114 15.2029 40.713C14.9014 41.0144 14.728 41.4326 14.728 41.8589C14.728 42.287 14.9016 42.7035 15.2029 43.0065C15.5045 43.3081 15.9227 43.4799 16.349 43.4799C16.7753 43.4799 17.1937 43.3081 17.4951 43.0065C17.7966 42.7034 17.97 42.287 17.97 41.8589C17.97 41.4326 17.7966 41.0144 17.4951 40.713Z" fill="#6ABF16"/>
<path d="M32.7821 40.713C32.4807 40.4114 32.0625 40.2379 31.636 40.2379C31.2097 40.2379 30.7914 40.4114 30.49 40.713C30.1884 41.0144 30.0151 41.4326 30.0151 41.8589C30.0151 42.287 30.1884 42.7035 30.49 43.0065C30.7915 43.3081 31.2097 43.4799 31.636 43.4799C32.0623 43.4799 32.4807 43.3081 32.7821 43.0065C33.0836 42.7034 33.257 42.2852 33.257 41.8589C33.257 41.4326 33.0836 41.0144 32.7821 40.713Z" fill="#6ABF16"/>
<path d="M29.8086 49.6146C28.9437 49.3829 28.0553 49.8975 27.824 50.7623C27.3608 52.4964 25.7853 53.7077 23.9926 53.7077C22.2 53.7077 20.6246 52.4964 20.1612 50.7623C19.9301 49.8972 19.0417 49.3826 18.1766 49.6146C17.3116 49.8458 16.7978 50.7341 17.0289 51.5992C17.8705 54.7496 20.7341 56.95 23.9928 56.95C27.2512 56.95 30.1149 54.7496 30.9565 51.5992C31.1874 50.7342 30.6734 49.8457 29.8086 49.6146Z" fill="#6ABF16"/>
<path d="M41.5001 0C40.6047 0 39.879 0.725747 39.879 1.62114V11.9125C39.879 12.8079 40.6047 13.5337 41.5001 13.5337C42.3955 13.5337 43.1213 12.8079 43.1213 11.9125V1.62114C43.1213 0.725747 42.3955 0 41.5001 0Z" fill="#6ABF16"/>
<path d="M42.6468 16.495C42.3451 16.1918 41.9269 16.0201 41.5008 16.0201C41.0728 16.0201 40.6561 16.192 40.3531 16.495C40.0516 16.7965 39.8798 17.2147 39.8798 17.6411C39.8798 18.0674 40.0517 18.4857 40.3531 18.7871C40.6563 19.0887 41.0728 19.262 41.5008 19.262C41.9271 19.262 42.3455 19.0887 42.6468 18.7871C42.9482 18.4856 43.1218 18.0674 43.1218 17.6411C43.1218 17.2147 42.9482 16.7965 42.6468 16.495Z" fill="#6ABF16"/>
<path d="M31.6211 14.7377L27.4825 10.6026C26.8492 9.96991 25.8226 9.97023 25.1899 10.6036C24.5571 11.237 24.5574 12.2633 25.1908 12.8962L29.3295 17.0315C29.6459 17.3478 30.0606 17.5058 30.4752 17.5058C30.8904 17.5058 31.3056 17.3471 31.6221 17.0305C32.2548 16.397 32.2545 15.3706 31.6211 14.7377Z" fill="#6ABF16"/>
<path d="M57.8136 10.6069C57.1803 9.97396 56.1538 9.97445 55.521 10.6077L51.121 15.0113C50.4881 15.6446 50.4886 16.6711 51.1218 17.3039C51.4383 17.6203 51.8529 17.7783 52.2676 17.7783C52.6827 17.7783 53.0978 17.6198 53.4143 17.303L57.8143 12.8995C58.4474 12.2661 58.4469 11.2396 57.8136 10.6069Z" fill="#6ABF16"/>
<path d="M82.1408 39.7865C78.7168 27.0074 65.5347 19.3968 52.7559 22.8213C48.37 23.9965 44.4953 26.3332 41.4689 29.5688C36.9407 24.746 30.6739 22.0147 23.9926 22.0147C10.7631 22.0147 0 32.7779 0 46.0074C0 59.2369 10.7631 70 23.9926 70C30.6802 70 36.957 67.2602 41.4868 62.4258C45.9723 67.1816 52.2979 69.9917 58.9712 69.9917C61.0208 69.9917 63.1039 69.7265 65.1755 69.1715C77.9542 65.7473 85.5649 52.5651 82.1408 39.7865ZM23.9926 66.7577C12.5506 66.7577 3.24212 57.4491 3.24212 46.0072C3.24212 34.5654 12.5506 25.2568 23.9926 25.2568C29.9157 25.2568 35.4631 27.739 39.4 32.1079C38.97 32.7161 38.5646 33.3466 38.1874 33.9998C34.983 39.5499 34.1318 46.0157 35.7906 52.2058C36.5516 55.0468 37.7951 57.6318 39.4091 59.8974C35.4714 64.272 29.9178 66.7577 23.9926 66.7577ZM64.3363 66.0397C53.2845 69.0003 41.8837 62.4188 38.9223 51.367C37.4879 46.0132 38.224 40.4212 40.9952 35.6212C41.5066 34.7356 42.0762 33.8969 42.6982 33.1083C42.7251 33.0773 42.7501 33.0452 42.7744 33.0127C45.5176 29.5771 49.269 27.1122 53.5949 25.953C55.3872 25.4729 57.1877 25.2437 58.9608 25.2437C68.1216 25.2437 76.5277 31.3661 79.0087 40.6256C81.9704 51.6776 75.3881 63.0783 64.3363 66.0397Z" fill="#6ABF16"/>
<path d="M54.2172 42.8179C53.7155 40.9452 51.7844 39.8294 49.9108 40.3315C48.038 40.8335 46.9227 42.7651 47.4246 44.6379C47.6187 45.3622 48.2736 45.84 48.9895 45.84C49.1282 45.84 49.2696 45.822 49.41 45.7843C50.2749 45.5524 50.788 44.6638 50.5562 43.7989C50.5171 43.6531 50.604 43.5024 50.7498 43.4633C50.8402 43.4393 50.9128 43.4649 50.9577 43.4907C51.0024 43.5166 51.0611 43.5665 51.0854 43.657C51.3171 44.5217 52.2057 45.0352 53.0708 44.8032C53.9359 44.5716 54.4489 43.6829 54.2172 42.8179Z" fill="#6ABF16"/>
<path d="M68.8915 38.8859C68.6483 37.9787 68.0666 37.2205 67.2532 36.7508C66.4398 36.2814 65.4922 36.1564 64.5852 36.3996C63.678 36.6427 62.9196 37.2244 62.4502 38.0378C61.9807 38.8512 61.8557 39.7986 62.0989 40.706C62.2931 41.4303 62.948 41.908 63.6639 41.908C63.8026 41.9078 63.944 41.89 64.0845 41.8522C64.9493 41.6204 65.4624 40.7316 65.2307 39.8667C65.2066 39.7763 65.2322 39.7038 65.2581 39.6589C65.284 39.6141 65.3338 39.5556 65.4243 39.5314C65.5148 39.5073 65.5875 39.533 65.6322 39.5588C65.6769 39.5846 65.7355 39.6345 65.7598 39.7251C65.9915 40.5898 66.8801 41.1031 67.7451 40.8713C68.6101 40.6396 69.1232 39.7508 68.8915 38.8859Z" fill="#6ABF16"/>
<path d="M67.4713 49.058C67.2394 48.1932 66.3505 47.6798 65.4858 47.9116C64.6208 48.1435 64.1078 49.0321 64.3395 49.897C64.8911 51.9557 63.665 54.0794 61.6064 54.631C60.6089 54.8983 59.5673 54.7609 58.6734 54.2449C57.7791 53.7285 57.1396 52.8951 56.8726 51.8978C56.6407 51.033 55.7519 50.5192 54.887 50.7516C54.0222 50.9835 53.5091 51.8722 53.7408 52.737C54.2322 54.5709 55.4083 56.1035 57.0524 57.0527C58.1474 57.685 59.363 58.0081 60.5946 58.0081C61.2121 58.0081 61.8335 57.9271 62.4459 57.7628C66.2311 56.7484 68.4855 52.8433 67.4713 49.058Z" fill="#6ABF16"/>
</svg>

<svg width="83" height="70" fill="none" xmlns="http://www.w3.org/2000/svg"><path d="M17.495 40.713a1.63 1.63 0 00-1.146-.475c-.426 0-.845.173-1.146.475-.302.301-.475.72-.475 1.146 0 .428.174.844.475 1.148.302.301.72.473 1.146.473.426 0 .845-.172 1.146-.473.302-.304.475-.72.475-1.148 0-.426-.173-.845-.475-1.146zM32.782 40.713a1.633 1.633 0 00-1.146-.475c-.426 0-.845.173-1.146.475-.302.301-.475.72-.475 1.146 0 .428.173.844.475 1.148.302.301.72.473 1.146.473.426 0 .845-.172 1.146-.473a1.64 1.64 0 00.475-1.148c0-.426-.173-.845-.475-1.146zM29.809 49.615a1.62 1.62 0 00-1.985 1.147 3.972 3.972 0 01-3.831 2.946 3.973 3.973 0 01-3.832-2.946 1.62 1.62 0 10-3.132.837 7.219 7.219 0 006.964 5.351c3.258 0 6.122-2.2 6.963-5.35a1.621 1.621 0 00-1.147-1.985zM41.5 0c-.895 0-1.621.726-1.621 1.621v10.291a1.621 1.621 0 103.242 0V1.623c0-.896-.726-1.622-1.62-1.622zM42.647 16.495a1.627 1.627 0 00-1.146-.475 1.63 1.63 0 00-1.148.475c-.301.302-.473.72-.473 1.146 0 .426.172.845.473 1.146.303.302.72.475 1.148.475.426 0 .845-.173 1.146-.475.301-.301.475-.72.475-1.146 0-.426-.174-.844-.475-1.146zM31.621 14.738l-4.138-4.135a1.621 1.621 0 00-2.292 2.293l4.139 4.136a1.617 1.617 0 002.293-.001 1.621 1.621 0 00-.002-2.293zM57.814 10.607a1.621 1.621 0 00-2.293 0l-4.4 4.404a1.621 1.621 0 002.293 2.292l4.4-4.404a1.62 1.62 0 000-2.292z" fill="#6ABF16"/><path d="M82.14 39.786c-3.423-12.779-16.605-20.39-29.384-16.965a23.835 23.835 0 00-11.287 6.748 23.869 23.869 0 00-17.476-7.554C10.763 22.015 0 32.778 0 46.007 0 59.237 10.763 70 23.993 70c6.687 0 12.964-2.74 17.494-7.574 4.485 4.756 10.81 7.566 17.484 7.566 2.05 0 4.133-.266 6.205-.82 12.778-3.425 20.389-16.607 16.965-29.386zM23.994 66.758c-11.442 0-20.75-9.309-20.75-20.75 0-11.443 9.308-20.751 20.75-20.751 5.923 0 11.47 2.482 15.407 6.85-.43.61-.835 1.24-1.213 1.893a23.835 23.835 0 00-2.396 18.206 23.873 23.873 0 003.618 7.691 20.654 20.654 0 01-15.416 6.86zm40.343-.718C53.285 69 41.884 62.419 38.922 51.367a20.616 20.616 0 012.073-15.746 21.07 21.07 0 011.78-2.608c2.743-3.436 6.494-5.9 10.82-7.06 1.792-.48 3.593-.71 5.366-.71 9.16 0 17.567 6.123 20.048 15.383 2.961 11.052-3.62 22.452-14.673 25.414z" fill="#6ABF16"/><path d="M54.217 42.818a3.52 3.52 0 00-4.306-2.486 3.52 3.52 0 00-2.486 4.306 1.622 1.622 0 003.131-.84.274.274 0 01.53-.141 1.62 1.62 0 103.131-.84zM68.891 38.886a3.494 3.494 0 00-1.638-2.135 3.493 3.493 0 00-2.668-.351 3.492 3.492 0 00-2.135 1.638 3.493 3.493 0 00-.351 2.668 1.622 1.622 0 003.132-.84.27.27 0 01.027-.207.269.269 0 01.166-.128.27.27 0 01.208.028.269.269 0 01.128.166 1.62 1.62 0 103.131-.84zM67.471 49.058a1.621 1.621 0 00-3.132.839 3.87 3.87 0 01-2.733 4.734 3.84 3.84 0 01-2.933-.386 3.839 3.839 0 01-1.8-2.347 1.62 1.62 0 10-3.132.839 7.06 7.06 0 003.311 4.316 7.066 7.066 0 005.394.71c3.785-1.015 6.04-4.92 5.025-8.705z" fill="#6ABF16"/></svg>
